X: 34294
T: Requiem, The
R: reel
M: 4/4
K: Bminor
|:e2 df eB (3BBB|AcBA GEED|EBGE FAdA|Bege fga gf|
e2 df eB (3BBB|AcBA GEED|EBGE FAdA|1 Bgfd egfd:|2 Bgfd e2ef||
|:(3gfe Be gebe|(3fed Ad fagf|(3gfe Be gebe|afde feef|
(3gfe Be gebe|(3fed Ad fagf|e2 df eB (3BBB|1 AcBA GEEf:|2 AcBA GEED||
|:EBGE FAdA|Bege dAFD|EBGE FAdB|AFDE FEED|
EBGE FAdA|Bege fagf|e2 df eB (3BBB|AcBA GEED:|E4||

